svgs/sharp-solid/shredder.svg

<svg xmlns="http://www.w3.org/2000/svg" viewBox="0 0 512 512"><!--! Font Awesome Pro 6.6.0 by @fontawesome - https://fontawesome.com License - https://fontawesome.com/license (Commercial License) Copyright 2024 Fonticons, Inc. --><path d="M64 0L96 0 368 0l13.3 0 9.4 9.4 48 48 9.4 9.4L448 80l0 112 64 0 0 192L0 384 0 192l64 0L64 32 64 0zM384 93.3L354.7 64 128 64l0 128 256 0 0-98.7zM456 248l-48 0 0 48 48 0 0-48zM40 416l48 0 0 72 0 24-48 0 0-24 0-72zm96 0l48 0 0 72 0 24-48 0 0-24 0-72zm96 0l48 0 0 72 0 24-48 0 0-24 0-72zm96 0l48 0 0 72 0 24-48 0 0-24 0-72zm96 0l48 0 0 72 0 24-48 0 0-24 0-72z"/></svg>

<svg xmlns="http://www.w3.org/2000/svg" viewBox="0 0 512 512"><!--! Font Awesome Pro 6.4.0 by @fontawesome - https://fontawesome.com License - https://fontawesome.com/license (Commercial License) Copyright 2023 Fonticons, Inc. --><path d="M64 0H96 368h13.3l9.4 9.4 48 48 9.4 9.4V80 192h64V384H0V192H64V32 0zM384 93.3L354.7 64H128V192H384V93.3zM456 248H408v48h48V248zM40 416H88v72 24H40V488 416zm96 0h48v72 24H136V488 416zm96 0h48v72 24H232V488 416zm96 0h48v72 24H328V488 416zm96 0h48v72 24H424V488 416z"/></svg>
